public/socials/facebook.svg

<svg fill="none" height="33" viewBox="0 0 32 33" width="32" xmlns="http://www.w3.org/2000/svg"><path d="m0 16.5c0 8.8366 7.16344 16 16 16 8.8366 0 16-7.1634 16-16 0-8.83656-7.1634-16-16-16-8.83656 0-16 7.16344-16 16z" fill="#1877f2"/><path d="m24 16.5c0-4.4-3.6-8-8-8s-8 3.6-8 8c0 4 2.9 7.3 6.7 7.9v-5.6h-2v-2.3h2v-1.8c0-2 1.2-3.1 3-3.1.9 0 1.8.2 1.8.2v2h-1c-1 0-1.3.6-1.3 1.2v1.5h2.2l-.4 2.3h-1.9v5.7c4-.6 6.9-4 6.9-8z" fill="#fff"/></svg>

<svg width="32" height="33" viewBox="0 0 32 33" fill="none" xmlns="http://www.w3.org/2000/svg">
<path d="M0 16.5C0 25.3366 7.16344 32.5 16 32.5C24.8366 32.5 32 25.3366 32 16.5C32 7.66344 24.8366 0.5 16 0.5C7.16344 0.5 0 7.66344 0 16.5Z" fill="#1877F2"/>
<path d="M24 16.5C24 12.1 20.4 8.5 16 8.5C11.6 8.5 8 12.1 8 16.5C8 20.5 10.9 23.8 14.7 24.4V18.8H12.7V16.5H14.7V14.7C14.7 12.7 15.9 11.6 17.7 11.6C18.6 11.6 19.5 11.8 19.5 11.8V13.8H18.5C17.5 13.8 17.2 14.4 17.2 15V16.5H19.4L19 18.8H17.1V24.5C21.1 23.9 24 20.5 24 16.5Z" fill="white"/>
</svg>
